X: 21267
T: Keeper Of The Treasure
R: polka
M: 2/4
K: Bminor
|:BF BF|B/c/d/c/ BF|B>c de|fe de|
fg/f/ ed|cB Ac/B/|Ac Bd|1 ce c/B/A:|2 ca/f/ ec||
|:Bb af|ge ec|de/f/ ed|cA AF|
G/F/G/B/ ed|cA A/B/c/e/|fe dc|1 B2 B/d/B/A/:|2 f/g/f/e/ dc||

